MODULE Module1
	PERS tooldata MyTool:=[TRUE,[[31.792631019,0,229.638935148],[0.945518576,0,0.325568154,0]],[1,[0,0,1],[1,0,0,0],0,0,0]];
	CONST robtarget Target_10:=[[1167.590413152,-396.978199803,1204.044006424],[0.190808872,0,0.981627207,0],[-1,0,-1,0],[9E9,9E9,9E9,9E9,9E9,9E9]];
	CONST robtarget Target_20:=[[1167.590413152,-236.722775195,1204.044006424],[0.190808872,0,0.981627207,0],[-1,0,-1,0],[9E9,9E9,9E9,9E9,9E9,9E9]];
	CONST robtarget Target_30:=[[1167.590413152,-213.65357164,1233.965922931],[0.190808872,0,0.981627207,0],[-1,0,-1,0],[9E9,9E9,9E9,9E9,9E9,9E9]];
	CONST robtarget Target_40:=[[1167.590413152,-214.850313297,1241.468996605],[0.190808872,0,0.981627207,0],[-1,0,-1,0],[9E9,9E9,9E9,9E9,9E9,9E9]];
	CONST robtarget Target_50:=[[1167.590413152,-209.366292143,1248.49693439],[0.190808872,0,0.981627207,0],[-1,0,-1,0],[9E9,9E9,9E9,9E9,9E9,9E9]];
	CONST robtarget Target_60:=[[1167.590413152,-198.67904518,1257.607221552],[0.190808872,0,0.981627207,0],[-1,0,-1,0],[9E9,9E9,9E9,9E9,9E9,9E9]];
	CONST robtarget Target_70:=[[1167.590413152,-204.505513659,1268.848428038],[0.190808872,0,0.981627207,0],[-1,0,-1,0],[9E9,9E9,9E9,9E9,9E9,9E9]];
	CONST robtarget Target_80:=[[1167.590413152,-204.61777589,1280.928155829],[0.190808872,0,0.981627207,0],[-1,0,-1,0],[9E9,9E9,9E9,9E9,9E9,9E9]];
	CONST robtarget Target_90:=[[1167.590413152,-193.587354805,1295.728108692],[0.190808872,0,0.981627207,0],[-1,0,-1,0],[9E9,9E9,9E9,9E9,9E9,9E9]];
	CONST robtarget Target_100:=[[1167.590413152,-193.241077817,1412.20656985],[0.190808872,0,0.981627207,0],[-1,0,-1,0],[9E9,9E9,9E9,9E9,9E9,9E9]];
	CONST robtarget Target_110:=[[1167.590413152,-201.929338661,1424.254324048],[0.190808872,0,0.981627207,0],[-1,0,-1,0],[9E9,9E9,9E9,9E9,9E9,9E9]];
	CONST robtarget Target_120:=[[1167.590413152,-200.656143518,1439.172927345],[0.190808872,0,0.981627207,0],[-1,0,-1,0],[9E9,9E9,9E9,9E9,9E9,9E9]];
	CONST robtarget Target_130:=[[1167.590413152,-191.923436223,1447.578840273],[0.190808872,0,0.981627207,0],[-1,0,-1,0],[9E9,9E9,9E9,9E9,9E9,9E9]];
	CONST robtarget Target_140:=[[1167.590413152,-185.13962194,1449.694049302],[0.190808872,0,0.981627207,0],[-1,0,-1,0],[9E9,9E9,9E9,9E9,9E9,9E9]];
	CONST robtarget Target_150:=[[1167.590413152,-185.516410438,1487.382023544],[0.190808872,0,0.981627207,0],[-1,0,-1,0],[9E9,9E9,9E9,9E9,9E9,9E9]];
	CONST robtarget Target_160:=[[1167.590413152,-189.162403124,1496.316349113],[0.190808872,0,0.981627207,0],[-1,0,-1,0],[9E9,9E9,9E9,9E9,9E9,9E9]];
	CONST robtarget Target_170:=[[1167.590413152,-182.277983321,1505.10321785],[0.190808872,0,0.981627207,0],[-1,0,-1,0],[9E9,9E9,9E9,9E9,9E9,9E9]];
	CONST robtarget Target_180:=[[1167.590413152,-183.267657628,1520.688786027],[0.190808872,0,0.981627207,0],[-1,0,-1,0],[9E9,9E9,9E9,9E9,9E9,9E9]];
	CONST robtarget Target_190:=[[1167.590413152,-181.437064856,1528.958635228],[0.190808872,0,0.981627207,0],[-1,0,-1,0],[9E9,9E9,9E9,9E9,9E9,9E9]];
	CONST robtarget Target_200:=[[1167.590413152,-180.704732704,1605.602800446],[0.190808872,0,0.981627207,0],[-1,0,-1,0],[9E9,9E9,9E9,9E9,9E9,9E9]];
	CONST robtarget Target_210:=[[1167.590413152,-178.003562545,1528.997005689],[0.190808872,0,0.981627207,0],[-1,0,-1,0],[9E9,9E9,9E9,9E9,9E9,9E9]];
	CONST robtarget Target_220:=[[1167.590413152,-177.219124617,1519.576622434],[0.190808872,0,0.981627207,0],[-1,0,-1,0],[9E9,9E9,9E9,9E9,9E9,9E9]];
	CONST robtarget Target_230:=[[1167.590413152,-176.306130266,1504.739574921],[0.190808872,0,0.981627207,0],[-1,0,-1,0],[9E9,9E9,9E9,9E9,9E9,9E9]];
	CONST robtarget Target_240:=[[1167.590413152,-170.278224276,1496.354719574],[0.190808872,0,0.981627207,0],[-1,0,-1,0],[9E9,9E9,9E9,9E9,9E9,9E9]];
	CONST robtarget Target_250:=[[1167.590413152,-173.924216962,1487.420394005],[0.190808872,0,0.981627207,0],[-1,0,-1,0],[9E9,9E9,9E9,9E9,9E9,9E9]];
	CONST robtarget Target_260:=[[1167.590413152,-174.30100546,1449.732419764],[0.190808872,0,0.981627207,0],[-1,0,-1,0],[9E9,9E9,9E9,9E9,9E9,9E9]];
	CONST robtarget Target_270:=[[1167.590413152,-162.846120769,1443.91656897],[0.190808872,0,0.981627207,0],[-1,0,-1,0],[9E9,9E9,9E9,9E9,9E9,9E9]];
	CONST robtarget Target_280:=[[1167.590413152,-157.51128874,1424.292694509],[0.190808872,0,0.981627207,0],[-1,0,-1,0],[9E9,9E9,9E9,9E9,9E9,9E9]];
	CONST robtarget Target_290:=[[1167.590413152,-166.199549584,1412.244940311],[0.190808872,0,0.981627207,0],[-1,0,-1,0],[9E9,9E9,9E9,9E9,9E9,9E9]];
	CONST robtarget Target_300:=[[1167.590413152,-165.853272596,1295.766479153],[0.190808872,0,0.981627207,0],[-1,0,-1,0],[9E9,9E9,9E9,9E9,9E9,9E9]];
	CONST robtarget Target_310:=[[1167.590413152,-154.82285151,1280.96652629],[0.190808872,0,0.981627207,0],[-1,0,-1,0],[9E9,9E9,9E9,9E9,9E9,9E9]];
	CONST robtarget Target_320:=[[1167.590413152,-155.830765635,1264.943577207],[0.190808872,0,0.981627207,0],[-1,0,-1,0],[9E9,9E9,9E9,9E9,9E9,9E9]];
	CONST robtarget Target_330:=[[1167.590413152,-160.761582221,1257.645592013],[0.190808872,0,0.981627207,0],[-1,0,-1,0],[9E9,9E9,9E9,9E9,9E9,9E9]];
	CONST robtarget Target_340:=[[1167.590413152,-155.740712653,1249.246258557],[0.190808872,0,0.981627207,0],[-1,0,-1,0],[9E9,9E9,9E9,9E9,9E9,9E9]];
	CONST robtarget Target_350:=[[1167.590413152,-147.426878215,1246.910564958],[0.190808872,0,0.981627207,0],[-1,0,-1,0],[9E9,9E9,9E9,9E9,9E9,9E9]];
	CONST robtarget Target_360:=[[1167.590413152,-144.360548315,1238.733425352],[0.190808872,0,0.981627207,0],[-1,0,-1,0],[9E9,9E9,9E9,9E9,9E9,9E9]];
	CONST robtarget Target_370:=[[1167.590413152,-128.229945185,1207.274771979],[0.190808872,0,0.981627207,0],[-1,0,-1,0],[9E9,9E9,9E9,9E9,9E9,9E9]];
	CONST robtarget Target_380:=[[1167.590413152,-126.152738226,1284.312058822],[0.190808872,0,0.981627207,0],[-1,0,-1,0],[9E9,9E9,9E9,9E9,9E9,9E9]];
	CONST robtarget Target_390:=[[1167.590413152,-111.637939019,1299.653143382],[0.190808872,0,0.981627207,0],[-1,0,-1,0],[9E9,9E9,9E9,9E9,9E9,9E9]];
	CONST robtarget Target_400:=[[1167.590413152,-100.149020645,1299.68066782],[0.190808872,0,0.981627207,0],[-1,0,-1,0],[9E9,9E9,9E9,9E9,9E9,9E9]];
	CONST robtarget Target_410:=[[1167.590413152,-100.179727244,1312.497845678],[0.190808872,0,0.981627207,0],[-1,0,-1,0],[9E9,9E9,9E9,9E9,9E9,9E9]];
	CONST robtarget Target_420:=[[1167.590413152,-94.282284799,1322.968842989],[0.190808872,0,0.981627207,0],[-1,0,-1,0],[9E9,9E9,9E9,9E9,9E9,9E9]];
	CONST robtarget Target_430:=[[1167.590413152,-84.599401836,1326.181988005],[0.190808872,0,0.981627207,0],[-1,0,-1,0],[9E9,9E9,9E9,9E9,9E9,9E9]];
	CONST robtarget Target_440:=[[1167.590413152,-73.338907471,1314.753018352],[0.190808872,0,0.981627207,0],[-1,0,-1,0],[9E9,9E9,9E9,9E9,9E9,9E9]];
	CONST robtarget Target_450:=[[1167.590413152,-73.338907471,1303.185747827],[0.190808872,0,0.981627207,0],[-1,0,-1,0],[9E9,9E9,9E9,9E9,9E9,9E9]];
	CONST robtarget Target_460:=[[1167.590413152,-67.054920085,1310.007472276],[0.190808872,0,0.981627207,0],[-1,0,-1,0],[9E9,9E9,9E9,9E9,9E9,9E9]];
	CONST robtarget Target_470:=[[1167.590413152,-38.801736873,1325.974260195],[0.190808872,0,0.981627207,0],[-1,0,-1,0],[9E9,9E9,9E9,9E9,9E9,9E9]];
	CONST robtarget Target_480:=[[1167.590413152,-38.877170048,1303.083348122],[0.190808872,0,0.981627207,0],[-1,0,-1,0],[9E9,9E9,9E9,9E9,9E9,9E9]];
	CONST robtarget Target_490:=[[1167.590413152,-19.51113856,1290.114467887],[0.190808872,0,0.981627207,0],[-1,0,-1,0],[9E9,9E9,9E9,9E9,9E9,9E9]];
	CONST robtarget Target_500:=[[1167.590413152,-19.534507889,1268.470607639],[0.190808872,0,0.981627207,0],[-1,0,-1,0],[9E9,9E9,9E9,9E9,9E9,9E9]];
	CONST robtarget Target_510:=[[1167.590413152,-7.241625898,1258.695064879],[0.190808872,0,0.981627207,0],[-1,0,-1,0],[9E9,9E9,9E9,9E9,9E9,9E9]];
	CONST robtarget Target_520:=[[1167.590413152,-8.046176544,1331.497641847],[0.190808872,0,0.981627207,0],[-1,0,-1,0],[9E9,9E9,9E9,9E9,9E9,9E9]];
	CONST robtarget Target_530:=[[1167.590413152,3.230251454,1336.634468539],[0.190808872,0,0.981627207,0],[0,-1,0,0],[9E9,9E9,9E9,9E9,9E9,9E9]];
	CONST robtarget Target_540:=[[1167.590413152,12.172919311,1336.701394397],[0.190808872,0,0.981627207,0],[0,-1,0,0],[9E9,9E9,9E9,9E9,9E9,9E9]];
	CONST robtarget Target_550:=[[1167.590413152,15.003361553,1307.281044779],[0.190808872,0,0.981627207,0],[0,-1,0,0],[9E9,9E9,9E9,9E9,9E9,9E9]];
	CONST robtarget Target_560:=[[1167.590413152,27.687875479,1299.867287276],[0.190808872,0,0.981627207,0],[0,-1,0,0],[9E9,9E9,9E9,9E9,9E9,9E9]];
	CONST robtarget Target_570:=[[1167.590413152,27.687875479,1290.212154504],[0.190808872,0,0.981627207,0],[0,-1,0,0],[9E9,9E9,9E9,9E9,9E9,9E9]];
	CONST robtarget Target_580:=[[1167.590413152,66.601749598,1290.364456391],[0.190808872,0,0.981627207,0],[0,-1,0,0],[9E9,9E9,9E9,9E9,9E9,9E9]];
	CONST robtarget Target_590:=[[1167.590413152,66.580281123,1258.136155411],[0.190808872,0,0.981627207,0],[0,-1,0,0],[9E9,9E9,9E9,9E9,9E9,9E9]];
	CONST robtarget Target_600:=[[1167.590413152,69.743149274,1372.023699796],[0.190808872,0,0.981627207,0],[0,-1,0,0],[9E9,9E9,9E9,9E9,9E9,9E9]];
	CONST robtarget Target_610:=[[1167.590413152,89.439426278,1372.023699796],[0.190808872,0,0.981627207,0],[0,-1,0,0],[9E9,9E9,9E9,9E9,9E9,9E9]];
	CONST robtarget Target_620:=[[1167.590413152,108.823093165,1362.39585273],[0.190808872,0,0.981627207,0],[0,-1,0,0],[9E9,9E9,9E9,9E9,9E9,9E9]];
	CONST robtarget Target_630:=[[1167.590413152,108.893526033,1274.263219764],[0.190808872,0,0.981627207,0],[0,-1,0,0],[9E9,9E9,9E9,9E9,9E9,9E9]];
	CONST robtarget Target_640:=[[1167.590413152,111.823022362,1371.509948002],[0.190808872,0,0.981627207,0],[0,-1,0,0],[9E9,9E9,9E9,9E9,9E9,9E9]];
	CONST robtarget Target_650:=[[1167.590413152,148.459938345,1380.658304351],[0.190808872,0,0.981627207,0],[0,-1,0,0],[9E9,9E9,9E9,9E9,9E9,9E9]];
	CONST robtarget Target_660:=[[1167.590413152,156.358505957,1377.932316742],[0.190808872,0,0.981627207,0],[0,-1,0,0],[9E9,9E9,9E9,9E9,9E9,9E9]];
	CONST robtarget Target_670:=[[1167.590413152,155.794022053,1274.157941933],[0.190808872,0,0.981627207,0],[0,-1,0,0],[9E9,9E9,9E9,9E9,9E9,9E9]];
	CONST robtarget Target_680:=[[1167.590413152,171.17000619,1273.875565084],[0.190808872,0,0.981627207,0],[0,-1,0,0],[9E9,9E9,9E9,9E9,9E9,9E9]];
	CONST robtarget Target_690:=[[1167.590413152,171.318552379,1360.589043017],[0.190808872,0,0.981627207,0],[0,-1,0,0],[9E9,9E9,9E9,9E9,9E9,9E9]];
	CONST robtarget Target_700:=[[1167.590413152,178.911389907,1366.712331723],[0.190808872,0,0.981627207,0],[0,-1,0,0],[9E9,9E9,9E9,9E9,9E9,9E9]];
	CONST robtarget Target_710:=[[1167.590413152,183.489010953,1379.66305714],[0.190808872,0,0.981627207,0],[0,-1,0,0],[9E9,9E9,9E9,9E9,9E9,9E9]];
	CONST robtarget Target_720:=[[1167.590413152,186.693278597,1392.986820379],[0.190808872,0,0.981627207,0],[0,-1,0,0],[9E9,9E9,9E9,9E9,9E9,9E9]];
	CONST robtarget Target_730:=[[1167.590413152,188.023932658,1382.949299017],[0.190808872,0,0.981627207,0],[0,-1,0,0],[9E9,9E9,9E9,9E9,9E9,9E9]];
	CONST robtarget Target_740:=[[1167.590413152,191.899705109,1369.852134795],[0.190808872,0,0.981627207,0],[0,-1,0,0],[9E9,9E9,9E9,9E9,9E9,9E9]];
	CONST robtarget Target_750:=[[1167.590413152,203.377358124,1360.452143503],[0.190808872,0,0.981627207,0],[0,-1,0,0],[9E9,9E9,9E9,9E9,9E9,9E9]];
	CONST robtarget Target_760:=[[1167.590413152,203.36754636,1249.014292904],[0.190808872,0,0.981627207,0],[0,-1,0,0],[9E9,9E9,9E9,9E9,9E9,9E9]];
	CONST robtarget Target_770:=[[1167.590413152,213.608623635,1249.014292904],[0.190808872,0,0.981627207,0],[0,-1,0,0],[9E9,9E9,9E9,9E9,9E9,9E9]];
	CONST robtarget Target_780:=[[1167.590413152,214.025274171,1419.446382598],[0.190808872,0,0.981627207,0],[0,-1,0,0],[9E9,9E9,9E9,9E9,9E9,9E9]];
	CONST robtarget Target_790:=[[1167.590413152,250.685531528,1425.53977147],[0.190808872,0,0.981627207,0],[0,-1,0,0],[9E9,9E9,9E9,9E9,9E9,9E9]];
	CONST robtarget Target_800:=[[1167.590413152,250.223540022,1293.972262878],[0.190808872,0,0.981627207,0],[0,-1,0,0],[9E9,9E9,9E9,9E9,9E9,9E9]];
	CONST robtarget Target_810:=[[1167.590413152,260.813717613,1299.005483314],[0.190808872,0,0.981627207,0],[0,-1,0,0],[9E9,9E9,9E9,9E9,9E9,9E9]];
	CONST robtarget Target_820:=[[1167.590413152,260.997723125,1337.12747646],[0.190808872,0,0.981627207,0],[0,-1,0,0],[9E9,9E9,9E9,9E9,9E9,9E9]];
	CONST robtarget Target_830:=[[1167.590413152,275.371062418,1343.452051754],[0.190808872,0,0.981627207,0],[0,-1,0,0],[9E9,9E9,9E9,9E9,9E9,9E9]];
	CONST robtarget Target_840:=[[1167.590413152,297.468579899,1343.452051754],[0.190808872,0,0.981627207,0],[0,-1,0,0],[9E9,9E9,9E9,9E9,9E9,9E9]];
	CONST robtarget Target_850:=[[1167.590413152,304.99814413,1543.680017398],[0.190808872,0,0.981627207,0],[0,-1,0,0],[9E9,9E9,9E9,9E9,9E9,9E9]];
	CONST robtarget Target_860:=[[1167.590413152,326.945871481,1549.916049467],[0.190808872,0,0.981627207,0],[0,-1,0,0],[9E9,9E9,9E9,9E9,9E9,9E9]];
	CONST robtarget Target_870:=[[1167.590413152,334.845752919,1544.968594675],[0.190808872,0,0.981627207,0],[0,-1,0,0],[9E9,9E9,9E9,9E9,9E9,9E9]];
	CONST robtarget Target_880:=[[1167.590413152,345.103029388,1323.239657061],[0.190808872,0,0.981627207,0],[0,-1,0,0],[9E9,9E9,9E9,9E9,9E9,9E9]];
	CONST robtarget Target_890:=[[1167.590413152,358.138600392,1323.239657061],[0.190808872,0,0.981627207,0],[0,-1,0,0],[9E9,9E9,9E9,9E9,9E9,9E9]];
	CONST robtarget Target_900:=[[1167.590413152,358.453373512,1331.476760216],[0.190808872,0,0.981627207,0],[0,-1,0,0],[9E9,9E9,9E9,9E9,9E9,9E9]];
	CONST robtarget Target_910:=[[1167.590413152,366.440930804,1331.476760216],[0.190808872,0,0.981627207,0],[0,-1,0,0],[9E9,9E9,9E9,9E9,9E9,9E9]];
	CONST robtarget Target_920:=[[1167.590413152,366.457228896,1355.46539412],[0.190808872,0,0.981627207,0],[0,-1,0,0],[9E9,9E9,9E9,9E9,9E9,9E9]];
	CONST robtarget Target_930:=[[1167.590413152,417.560108898,1355.430674368],[0.190808872,0,0.981627207,0],[0,-1,0,0],[9E9,9E9,9E9,9E9,9E9,9E9]];
	CONST robtarget Target_940:=[[1167.590413152,417.560108898,1343.210276592],[0.190808872,0,0.981627207,0],[0,-1,0,0],[9E9,9E9,9E9,9E9,9E9,9E9]];
	CONST robtarget Target_950:=[[1167.590413152,437.329177448,1347.777498248],[0.190808872,0,0.981627207,0],[0,-1,0,0],[9E9,9E9,9E9,9E9,9E9,9E9]];
	CONST robtarget Target_960:=[[1167.590413152,454.25644056,1341.97589355],[0.190808872,0,0.981627207,0],[0,-1,0,0],[9E9,9E9,9E9,9E9,9E9,9E9]];
	CONST robtarget Target_970:=[[1167.590413152,454.718543881,1301.650280117],[0.190808872,0,0.981627207,0],[0,-1,0,0],[9E9,9E9,9E9,9E9,9E9,9E9]];
	CONST robtarget Target_980:=[[1167.590413152,473.865865286,1301.650280117],[0.190808872,0,0.981627207,0],[0,-1,0,0],[9E9,9E9,9E9,9E9,9E9,9E9]];
	CONST robtarget Target_990:=[[1167.590413152,474.713646395,1258.529390388],[0.190808872,0,0.981627207,0],[0,-1,0,0],[9E9,9E9,9E9,9E9,9E9,9E9]];
	CONST robtarget Target_1000:=[[1167.590413152,487.181560746,1258.529390388],[0.190808872,0,0.981627207,0],[0,-1,0,0],[9E9,9E9,9E9,9E9,9E9,9E9]];
	CONST robtarget Target_1010:=[[1167.590413152,487.181560746,1219.296372583],[0.190808872,0,0.981627207,0],[0,-1,0,0],[9E9,9E9,9E9,9E9,9E9,9E9]];
	CONST robtarget Target_1020:=[[1167.590413152,532.312181983,1219.296372583],[0.190808872,0,0.981627207,0],[0,-1,0,0],[9E9,9E9,9E9,9E9,9E9,9E9]];
	CONST robtarget Target_1030:=[[1167.590413152,532.221902911,1204.657323422],[0.190808872,0,0.981627207,0],[0,-1,0,0],[9E9,9E9,9E9,9E9,9E9,9E9]];
	CONST robtarget Target_1040:=[[1167.590413152,607.009091485,1204.501621827],[0.190808872,0,0.981627207,0],[0,-1,0,0],[9E9,9E9,9E9,9E9,9E9,9E9]];
	PROC Path_10()
	    MoveJ Target_10,v1000,z100,MyTool\WObj:=wobj0;
	    MoveJ Target_20,v1000,z100,MyTool\WObj:=wobj0;
	    MoveJ Target_30,v1000,z100,MyTool\WObj:=wobj0;
	    MoveJ Target_40,v1000,z100,MyTool\WObj:=wobj0;
	    MoveJ Target_50,v1000,z100,MyTool\WObj:=wobj0;
	    MoveJ Target_60,v1000,z100,MyTool\WObj:=wobj0;
	    MoveJ Target_70,v1000,z100,MyTool\WObj:=wobj0;
	    MoveJ Target_80,v1000,z100,MyTool\WObj:=wobj0;
	    MoveJ Target_90,v1000,z100,MyTool\WObj:=wobj0;
	    MoveJ Target_100,v1000,z100,MyTool\WObj:=wobj0;
	    MoveJ Target_110,v1000,z100,MyTool\WObj:=wobj0;
	    MoveJ Target_120,v1000,z100,MyTool\WObj:=wobj0;
	    MoveJ Target_130,v1000,z100,MyTool\WObj:=wobj0;
	    MoveJ Target_140,v1000,z100,MyTool\WObj:=wobj0;
	    MoveJ Target_150,v1000,z100,MyTool\WObj:=wobj0;
	    MoveJ Target_160,v1000,z100,MyTool\WObj:=wobj0;
	    MoveJ Target_170,v1000,z100,MyTool\WObj:=wobj0;
	    MoveJ Target_180,v1000,z100,MyTool\WObj:=wobj0;
	    MoveJ Target_190,v1000,z100,MyTool\WObj:=wobj0;
	    MoveJ Target_200,v1000,z100,MyTool\WObj:=wobj0;
	    MoveJ Target_210,v1000,z100,MyTool\WObj:=wobj0;
	    MoveJ Target_220,v1000,z100,MyTool\WObj:=wobj0;
	    MoveJ Target_230,v1000,z100,MyTool\WObj:=wobj0;
	    MoveJ Target_240,v1000,z100,MyTool\WObj:=wobj0;
	    MoveJ Target_250,v1000,z100,MyTool\WObj:=wobj0;
	    MoveJ Target_260,v1000,z100,MyTool\WObj:=wobj0;
	    MoveJ Target_270,v1000,z100,MyTool\WObj:=wobj0;
	    MoveJ Target_280,v1000,z100,MyTool\WObj:=wobj0;
	    MoveJ Target_290,v1000,z100,MyTool\WObj:=wobj0;
	    MoveJ Target_300,v1000,z100,MyTool\WObj:=wobj0;
	    MoveJ Target_310,v1000,z100,MyTool\WObj:=wobj0;
	    MoveJ Target_320,v1000,z100,MyTool\WObj:=wobj0;
	    MoveJ Target_330,v1000,z100,MyTool\WObj:=wobj0;
	    MoveJ Target_340,v1000,z100,MyTool\WObj:=wobj0;
	    MoveJ Target_350,v1000,z100,MyTool\WObj:=wobj0;
	    MoveJ Target_360,v1000,z100,MyTool\WObj:=wobj0;
	    MoveJ Target_370,v1000,z100,MyTool\WObj:=wobj0;
	    MoveJ Target_380,v1000,z100,MyTool\WObj:=wobj0;
	    MoveJ Target_390,v1000,z100,MyTool\WObj:=wobj0;
	    MoveJ Target_400,v1000,z100,MyTool\WObj:=wobj0;
	    MoveJ Target_410,v1000,z100,MyTool\WObj:=wobj0;
	    MoveJ Target_420,v1000,z100,MyTool\WObj:=wobj0;
	    MoveJ Target_430,v1000,z100,MyTool\WObj:=wobj0;
	    MoveJ Target_440,v1000,z100,MyTool\WObj:=wobj0;
	    MoveJ Target_450,v1000,z100,MyTool\WObj:=wobj0;
	    MoveJ Target_460,v1000,z100,MyTool\WObj:=wobj0;
	    MoveJ Target_470,v1000,z100,MyTool\WObj:=wobj0;
	    MoveJ Target_480,v1000,z100,MyTool\WObj:=wobj0;
	    MoveJ Target_490,v1000,z100,MyTool\WObj:=wobj0;
	    MoveJ Target_500,v1000,z100,MyTool\WObj:=wobj0;
	    MoveJ Target_510,v1000,z100,MyTool\WObj:=wobj0;
	    MoveJ Target_520,v1000,z100,MyTool\WObj:=wobj0;
	    MoveJ Target_530,v1000,z100,MyTool\WObj:=wobj0;
	    MoveJ Target_540,v1000,z100,MyTool\WObj:=wobj0;
	    MoveJ Target_550,v1000,z100,MyTool\WObj:=wobj0;
	    MoveJ Target_560,v1000,z100,MyTool\WObj:=wobj0;
	    MoveJ Target_570,v1000,z100,MyTool\WObj:=wobj0;
	    MoveJ Target_580,v1000,z100,MyTool\WObj:=wobj0;
	    MoveJ Target_590,v1000,z100,MyTool\WObj:=wobj0;
	    MoveJ Target_600,v1000,z100,MyTool\WObj:=wobj0;
	    MoveJ Target_610,v1000,z100,MyTool\WObj:=wobj0;
	    MoveJ Target_620,v1000,z100,MyTool\WObj:=wobj0;
	    MoveJ Target_630,v1000,z100,MyTool\WObj:=wobj0;
	    MoveJ Target_640,v1000,z100,MyTool\WObj:=wobj0;
	    MoveJ Target_650,v1000,z100,MyTool\WObj:=wobj0;
	    MoveJ Target_660,v1000,z100,MyTool\WObj:=wobj0;
	    MoveJ Target_670,v1000,z100,MyTool\WObj:=wobj0;
	    MoveJ Target_680,v1000,z100,MyTool\WObj:=wobj0;
	    MoveJ Target_690,v1000,z100,MyTool\WObj:=wobj0;
	    MoveJ Target_700,v1000,z100,MyTool\WObj:=wobj0;
	    MoveJ Target_710,v1000,z100,MyTool\WObj:=wobj0;
	    MoveJ Target_720,v1000,z100,MyTool\WObj:=wobj0;
	    MoveJ Target_730,v1000,z100,MyTool\WObj:=wobj0;
	    MoveJ Target_740,v1000,z100,MyTool\WObj:=wobj0;
	    MoveJ Target_750,v1000,z100,MyTool\WObj:=wobj0;
	    MoveJ Target_760,v1000,z100,MyTool\WObj:=wobj0;
	    MoveJ Target_770,v1000,z100,MyTool\WObj:=wobj0;
	    MoveJ Target_780,v1000,z100,MyTool\WObj:=wobj0;
	    MoveJ Target_790,v1000,z100,MyTool\WObj:=wobj0;
	    MoveJ Target_800,v1000,z100,MyTool\WObj:=wobj0;
	    MoveJ Target_810,v1000,z100,MyTool\WObj:=wobj0;
	    MoveJ Target_820,v1000,z100,MyTool\WObj:=wobj0;
	    MoveJ Target_830,v1000,z100,MyTool\WObj:=wobj0;
	    MoveJ Target_840,v1000,z100,MyTool\WObj:=wobj0;
	    MoveJ Target_850,v1000,z100,MyTool\WObj:=wobj0;
	    MoveJ Target_860,v1000,z100,MyTool\WObj:=wobj0;
	    MoveJ Target_870,v1000,z100,MyTool\WObj:=wobj0;
	    MoveJ Target_880,v1000,z100,MyTool\WObj:=wobj0;
	    MoveJ Target_890,v1000,z100,MyTool\WObj:=wobj0;
	    MoveJ Target_900,v1000,z100,MyTool\WObj:=wobj0;
	    MoveJ Target_910,v1000,z100,MyTool\WObj:=wobj0;
	    MoveJ Target_920,v1000,z100,MyTool\WObj:=wobj0;
	    MoveJ Target_930,v1000,z100,MyTool\WObj:=wobj0;
	    MoveJ Target_940,v1000,z100,MyTool\WObj:=wobj0;
	    MoveJ Target_950,v1000,z100,MyTool\WObj:=wobj0;
	    MoveJ Target_960,v1000,z100,MyTool\WObj:=wobj0;
	    MoveJ Target_970,v1000,z100,MyTool\WObj:=wobj0;
	    MoveJ Target_980,v1000,z100,MyTool\WObj:=wobj0;
	    MoveJ Target_990,v1000,z100,MyTool\WObj:=wobj0;
	    MoveJ Target_1000,v1000,z100,MyTool\WObj:=wobj0;
	    MoveJ Target_1010,v1000,z100,MyTool\WObj:=wobj0;
	    MoveJ Target_1020,v1000,z100,MyTool\WObj:=wobj0;
	    MoveJ Target_1030,v1000,z100,MyTool\WObj:=wobj0;
	    MoveJ Target_1040,v1000,z100,MyTool\WObj:=wobj0;
	ENDPROC
    PROC main()
        Path_10;
    ENDPROC
ENDMODULE
